assets/features/channel/other/SadaPay.svg

<svg width="80" height="80" viewBox="0 0 80 80" fill="none" xmlns="http://www.w3.org/2000/svg">
<rect x="0.5" y="0.5" width="79" height="79" rx="7.5" fill="white"/>
<rect x="0.5" y="0.5" width="79" height="79" rx="7.5" stroke="#EEEEEE"/>
<path d="M39.5214 59.9998C38.9432 59.6225 38.4276 59.172 37.9416 58.6793C34.8444 55.5452 31.7393 52.4179 28.638 49.2903C26.1153 47.1711 24.1371 44.7225 23.7326 41.3033C23.7262 41.2487 23.6446 41.2005 23.6006 41.1504C24.0282 41.1086 24.0069 41.4605 24.0468 41.7038C24.5161 44.4602 26.0186 46.5566 27.9524 48.3762C27.9524 48.3785 27.9543 48.3804 27.9566 48.3827C28.0594 48.4772 28.1619 48.5713 28.2647 48.6659C28.4176 48.8044 28.5728 48.9403 28.7298 49.0766C31.7515 52.3006 34.97 55.3319 38.0375 58.5096C38.524 59.0149 39.3203 59.216 39.5214 59.9998Z" fill="#FEFEFE"/>
<path d="M40.5859 31.1051C41.7029 30.2066 43.0718 29.9318 44.6908 29.4915C43.6364 28.4936 42.6818 27.6066 41.7458 26.7006C40.8974 25.8792 40.0677 25.0392 39.2333 24.2034C37.5275 22.4949 37.6053 21.3733 39.5209 20C39.9398 20 40.3591 20 40.7779 20C41.4138 20.4149 41.9662 20.9239 42.4993 21.4636C45.6177 24.6224 48.7459 27.7717 51.8711 30.924C54.3908 33.6159 54.4508 38.4361 52.9665 41.6215C52.8026 41.9729 52.6387 42.406 52.1079 42.3749C52.0969 42.3741 52.0832 42.3252 52.0806 42.2978C52.0772 42.2637 52.084 42.2288 52.0863 42.1942C53.0917 38.7937 51.7937 35.5806 48.3134 34.0357C47.0295 31.7815 44.6009 30.6454 42.0846 31.0865C41.5971 31.1711 41.0883 31.4691 40.5859 31.1051Z" fill="#FE8065"/>
<path d="M40.7782 59.9999H39.5208C38.9426 59.6226 38.427 59.1721 37.941 58.6794C34.8438 55.5453 31.7387 52.418 28.6374 49.2903C28.3882 48.9905 28.1616 48.6887 27.9564 48.3828C27.9541 48.3805 27.9522 48.3786 27.9522 48.3763C25.8632 45.2718 26.0161 41.905 27.3949 38.4107C27.5311 38.0626 27.6506 37.5912 28.2057 37.633C28.2163 37.633 28.2288 37.6853 28.2307 37.7127C28.233 37.7483 28.2265 37.7818 28.2242 37.8174C27.3338 41.5991 28.4652 44.1585 31.7884 45.8776C31.7884 45.8799 31.7907 45.8799 31.7926 45.8818C32.7628 47.2213 33.8942 48.3448 35.5662 48.7851C36.4525 49.0159 37.3244 49.0952 38.2335 48.9066C38.7153 48.8079 39.231 48.5251 39.7276 48.8982C38.6064 49.7872 37.2573 50.1098 35.8364 50.4454C36.2742 51.1582 36.9177 51.6338 37.4625 52.1914C38.6778 53.4345 39.912 54.6586 41.1439 55.885C42.7583 57.4887 42.6453 58.7822 40.7782 59.9999Z" fill="#3DDCBF"/>
<path d="M35.6195 29.6629C33.9136 31.3546 32.2397 33.0821 30.513 34.7525C29.5785 35.6559 28.8117 36.6644 28.2247 37.8172C27.1161 38.9115 26.9256 40.3599 26.7519 41.7875C26.4502 44.2737 27.0618 46.5462 28.2646 48.6653C28.3818 48.8748 28.5078 49.0825 28.6375 49.2901C26.1148 47.171 24.1366 44.7223 23.7321 41.3032C23.7257 41.2485 23.6441 41.2003 23.6001 41.1502V38.8485C23.9814 38.4943 23.7993 37.9933 23.9165 37.5678C24.4215 35.7208 25.2555 34.0545 26.5944 32.6835C28.5412 30.6919 30.5042 28.7132 32.5056 26.7763C33.9117 25.4159 35.8646 25.9169 36.244 27.6819C36.4117 28.4532 36.1855 29.103 35.6195 29.6629Z" fill="#66EDCF"/>
<path d="M52.0866 42.194C53.0609 41.6288 53.0848 40.5736 53.3295 39.6657C54.1718 36.5419 53.4616 33.6541 51.8711 30.9238C54.7629 33.2707 56.6623 36.1672 56.6683 40.0088C56.6729 42.7994 55.6845 45.2678 53.7465 47.2875C51.8145 49.3007 49.8147 51.2494 47.8322 53.2145C46.8746 54.1638 45.4746 54.2518 44.6475 53.4479C43.7225 52.5491 43.7801 51.2874 44.8341 50.217C46.4011 48.6262 47.9753 47.0427 49.573 45.483C50.5742 44.5056 51.5114 43.4914 52.0866 42.194Z" fill="#FE9A85"/>
<path d="M40.5861 31.1051C41.9307 30.8868 43.2416 30.4526 44.6476 30.8827C46.0143 31.3006 47.1605 32.0009 48.0752 33.0766C48.2881 33.3271 48.6865 33.6065 48.3135 34.035C45.493 33.1977 43.1402 33.9234 41.126 36.0536C39.4038 37.8747 37.591 39.6101 35.8161 41.3812C35.1745 42.0215 34.4176 42.3001 33.5317 42.0022C32.7425 41.7369 32.2603 41.1751 32.1225 40.3419C32.0205 39.7251 32.1294 39.114 32.5581 38.684C34.967 36.2692 37.2567 33.7314 39.8724 31.5287C40.0814 31.3533 40.347 31.2448 40.5861 31.1051Z" fill="#FE6C59"/>
<path d="M39.7288 48.8986C38.1399 49.2402 36.5497 49.6046 34.9646 48.8868C33.56 48.2507 32.2434 47.5185 31.79 45.8776C34.6292 46.8725 37.027 46.1904 39.096 44.0431C40.836 42.2375 42.6328 40.4858 44.4172 38.7231C45.4287 37.7241 46.6937 37.6447 47.5728 38.4912C48.5145 39.398 48.4659 40.6225 47.4001 41.7012C45.4412 43.6837 43.4713 45.6552 41.4866 47.6115C40.9695 48.1216 40.4182 48.6113 39.7288 48.8986Z" fill="#2BC5B0"/>
</svg>

<svg xmlns="http://www.w3.org/2000/svg" width="80" height="80" fill="none" viewBox="0 0 80 80"><rect width="79" height="79" x=".5" y=".5" fill="#fff" rx="7.5"/><rect width="79" height="79" x=".5" y=".5" stroke="#eee" rx="7.5"/><path fill="#fefefe" d="M39.521 60a9.6 9.6 0 0 1-1.58-1.32c-3.097-3.135-6.202-6.262-9.303-9.39-2.523-2.119-4.5-4.568-4.905-7.987-.007-.054-.088-.102-.132-.153.427-.041.406.31.446.554.47 2.756 1.972 4.853 3.905 6.672q0 .004.005.007l.308.283q.23.207.465.41c3.021 3.225 6.24 6.256 9.308 9.434.486.505 1.282.706 1.483 1.49"/><path fill="#fe8065" d="M40.586 31.105c1.117-.898 2.486-1.173 4.105-1.614-1.055-.997-2.01-1.884-2.945-2.79-.849-.822-1.678-1.662-2.513-2.498-1.705-1.708-1.628-2.83.288-4.203h1.257c.636.415 1.188.924 1.721 1.464 3.119 3.158 6.247 6.308 9.372 9.46 2.52 2.692 2.58 7.512 1.096 10.697-.164.352-.328.785-.86.754-.01 0-.024-.05-.026-.077-.004-.034.003-.07.005-.104 1.006-3.4-.292-6.613-3.773-8.158-1.284-2.254-3.712-3.39-6.228-2.95-.488.085-.997.383-1.5.02"/><path fill="#3ddcbf" d="M40.778 60h-1.257a9.6 9.6 0 0 1-1.58-1.32c-3.097-3.135-6.202-6.262-9.304-9.39q-.373-.449-.68-.907-.005-.003-.005-.007c-2.089-3.104-1.936-6.471-.557-9.965.136-.348.256-.82.81-.778.011 0 .024.052.026.08.002.035-.005.069-.007.104-.89 3.782.241 6.341 3.564 8.06q.001.003.005.005c.97 1.34 2.101 2.463 3.773 2.903.886.23 1.758.31 2.667.122.482-.1.998-.382 1.495-.009-1.122.89-2.47 1.212-3.892 1.547.438.713 1.082 1.189 1.627 1.746 1.215 1.243 2.449 2.468 3.68 3.694 1.615 1.604 1.502 2.897-.365 4.115"/><path fill="#66edcf" d="M35.62 29.663c-1.706 1.692-3.38 3.42-5.107 5.09a11.5 11.5 0 0 0-2.288 3.064c-1.109 1.094-1.3 2.543-1.473 3.97-.302 2.487.31 4.76 1.513 6.878q.177.315.372.625c-2.522-2.119-4.5-4.568-4.905-7.987-.006-.054-.088-.103-.132-.153v-2.3c.381-.355.2-.856.316-1.281.506-1.847 1.34-3.514 2.678-4.884a302 302 0 0 1 5.912-5.908c1.406-1.36 3.359-.86 3.738.906.168.771-.059 1.421-.624 1.98"/><path fill="#fe9a85" d="M52.087 42.194c.974-.565.998-1.62 1.242-2.528.843-3.124.133-6.012-1.458-8.742 2.892 2.347 4.791 5.243 4.797 9.085.005 2.79-.983 5.259-2.922 7.279-1.931 2.013-3.931 3.961-5.914 5.927-.957.949-2.357 1.037-3.184.233-.926-.899-.868-2.16.186-3.231a342 342 0 0 1 4.739-4.734c1.001-.977 1.938-1.992 2.514-3.289"/><path fill="#fe6c59" d="M40.586 31.105c1.345-.218 2.656-.652 4.062-.222 1.366.418 2.512 1.118 3.427 2.194.213.25.611.53.238.958-2.82-.837-5.173-.112-7.187 2.019-1.722 1.82-3.535 3.556-5.31 5.327-.642.64-1.398.92-2.284.621-.79-.265-1.272-.827-1.41-1.66-.102-.617.007-1.228.436-1.658 2.409-2.415 4.699-4.953 7.314-7.155.21-.176.475-.284.714-.424"/><path fill="#2bc5b0" d="M39.729 48.899c-1.59.341-3.18.706-4.764-.012-1.405-.636-2.722-1.368-3.175-3.01 2.84.995 5.237.313 7.306-1.834 1.74-1.806 3.537-3.557 5.321-5.32 1.012-.999 2.277-1.078 3.156-.232.941.907.893 2.132-.173 3.21a634 634 0 0 1-5.913 5.91c-.518.51-1.069 1-1.758 1.288"/></svg>
